docs/assets/images/calc-svg/category-windowsill.svg

<svg width="120" height="74" viewBox="0 0 120 74" fill="none" xmlns="http://www.w3.org/2000/svg">
<path d="M84.9781 1C82.8996 1.8081 29.4845 28.1386 3.03689 41.2028L2.6373 44.2332V46.4555C0.873428 47.2127 0.638977 48.0642 1.43816 50.2939L43.6078 72.3146C45.3857 73.2401 46.3864 73.2168 48.2045 72.3146L118.954 12.1113C119.116 11.0058 118.881 10.4753 117.755 9.68705L115.756 9.08097L114.757 8.4749L84.9781 1Z" fill="#4F4F4F" fill-opacity="0.2"/>
<path d="M3.03689 41.2028C29.4845 28.1386 82.8996 1.8081 84.9781 1L114.757 8.4749M3.03689 41.2028L2.6373 44.2332V46.4555M3.03689 41.2028C19.2734 49.5163 28.5737 54.0553 45.4065 62.0113M45.4065 62.0113V65.6478C45.4065 65.6478 45.4065 67.2485 45.4065 68.2741M45.4065 62.0113C72.7479 41.2488 87.876 29.4951 114.757 8.4749M114.757 8.4749L115.756 9.08097L117.755 9.68705M117.755 9.68705C117.755 9.68705 45.4065 69.2842 45.4065 68.2741M117.755 9.68705C118.881 10.4753 119.116 11.0058 118.954 12.1113L48.2045 72.3146C46.3864 73.2168 45.3857 73.24 43.6078 72.3146C27.1396 63.715 17.9064 58.8935 1.43816 50.2939C0.638977 48.0642 0.873425 47.2127 2.6373 46.4555M2.6373 46.4555C2.4213 46.6864 28.3554 60.1266 45.4065 68.2741" stroke="#4F4F4F" stroke-opacity="0.6"/>
</svg>

<svg width="120" height="74" fill="none" xmlns="http://www.w3.org/2000/svg"><path d="M84.978 1C82.9 1.808 29.485 28.139 3.037 41.203l-.4 3.03v2.223c-1.764.757-1.998 1.608-1.199 3.838l42.17 22.02c1.778.926 2.778.903 4.597 0l70.749-60.203c.162-1.105-.073-1.636-1.199-2.424l-1.999-.606-.999-.606L84.978 1z" fill="#4F4F4F" fill-opacity=".2"/><path d="M3.037 41.203C29.485 28.139 82.9 1.808 84.978 1l29.779 7.475M3.037 41.203l-.4 3.03v2.223m.4-5.253c16.236 8.313 25.537 12.852 42.37 20.808m0 0v6.263m0-6.263c27.34-20.762 42.469-32.516 69.35-53.536m0 0l.999.606 1.999.606m0 0S45.406 69.284 45.406 68.274m72.349-58.587c1.126.788 1.361 1.319 1.199 2.424l-70.75 60.204c-1.818.902-2.818.925-4.596 0L1.438 50.294c-.799-2.23-.565-3.081 1.2-3.838m0 0c-.217.23 25.717 13.67 42.768 21.818" stroke="#4F4F4F" stroke-opacity=".6"/></svg>
